!!!OTL-incipit: MUTTER ACH MUTTER ES HUNGERT MICH
!!!ARE: Europa, Mitteleuropa, Deutschland
!!!SCT: Z0053
!!!TXL: @@DE
!!!YEM: Copyright 1995, estate of Helmut Schaffrath.
**kern	**text
*ICvox	*
*M4/4	*
*met(c)	*
*k[]	*
*C:	*
=1	=1
!LO:TX:a:t=Deutſch.	!
{4e	1._Mut-
8e	-ter!
8e	ach
4e	Mut-
8e	-ter!
8e	es
=2	=2
4f	hun-
4f	-gert
4f	mich,
4r}	.
=3	=3
{4e	gieb
4e	mir
(4g	Brod,
8e)	.
8c	ſonſt
=4	=4
4d	ſter-
4d	-be
2d}	ich!
=5	=5
{4cc	Gieb
4f#	mir
(4g	Brod,
8b/)	.
8dd	ſonſt
=6	=6
(2dd	ſter-
8ddL)	.
8cc	.
8aJ	.
8f#	-be
=7	=7
2g	ich!
2r}	.
=8||	=8||
{4e	2._"War-
4e	-te
4.e	nur,
8e	mein
=9	=9
4.f	lie-
8g	-bes
4a	Kind,
4r}	.
=10	=10
{4g	mor-
4g	-gen
8aL	wol-
8gJ	.
8fL	-len
8eJ	wir
=11	=11
4d	ſä-
8d	-en
8e	ge-
4c	-ſchwind.
4r}	.
=12	=12
{(2g	War-
4a)	.
8.cc/L	-te
16aJ	.
=13	=13
2g	nur,
4r	.
8r}	.
{8g	wir
=14	=14
2g	ſä-
4.a	-en
8f	ge-
=15	=15
2e	-ſchwind.
4r	.
8r}	.
{8e	3._Und
=16||	=16||
4e	als
4e	das
4.e	Korn
8e	ge-
=17	=17
4f	-ſä-
4f	-et
2f}	war,
=18	=18
{4e	rief
4e	das
(4g	Kind
8e)	.
8c	noch
=19	=19
4d	im-
4d	-mer-
4d	-dar
4r}	.
=20	=20
{8cc	Mutter!
8cc	.
8r	.
8f#	ach
8g	Mutter!
8g	.
8r	.
8b/	es
=21	=21
4cc	hun-
4f#	-gert
4g	mich,
4r}	.
=22	=22
{4cc	gieb
4f#	mir
(4g	Brod,
8b)	.
8dd	ſonſt
=23	=23
(2dd	ſter-
8ddL	.
8cc	.
8aJ)	.
8f#	-be
=24	=24
2g	ich!
4.r}	.
=||	=||
!LO:TX:a:t=Zu der letzten Strophe.	!
{8e	.
=25	=25
4e	4._Und
4e	als
4.e	das
8e	Brod
=26	=26
4f	ge-
4f	-ba-
2f}	-cken
=27	=27
{4g	war,
4g	lag
4a	das
8a	Kind
8a	auf
=28	=28
2.b/	der
4b/	Tod-
=29	=29
2.cc}	-ten-
{8c	-bahr,
8c	auf
=30	=30
2.c	der
4c	Tod-
=31	=31
2c	-ten
2r}	bahr.
==	==
!!!AGN: Sagen - Lied, Romanze,
!! Durchkomponiertes Lied (4 Strophen).
!!!ONB: ESAC (Essen Associative Code) Database: ZUCCAL
!!!AMT: simple quadruple
!!!AIN: vox
!!!EED: Helmut Schaffrath
!!!EEV: 1.0
!!!GTL: I. Ernste Romanzen und Sagen.
!!!URL-scan: https://www.digitale-sammlungen.de/de/view/bsb11160571?page=104
!!!ENC: Anna Maria Matuszewska
!!!EEV: 2025/01/24
*-	*-
